X:2804
T:The Star
P:Dod House
C:Glen Coll.
R:Strathspey (3x32)
B:RSCDS 28-4
Z:Anselm Lingnau <anselm@strathspey.org>
M:C
L:1/8
K:A
C|"A"A,>C E>F A>B c>B|"D"A<FF>A "E"B<B,B,>C|\
  "A"A,>C E>F A>B c>B|
                      "D"F<D "E7"A/F/E/C/ "A"EA,A, c|\
  "A"A>c e>f a>b c'>b|"D"a<ff>a "E7"b<BB>c|
  "A"A>c e>f a>b c'>b|"D"a<f "E7"a/f/e/c/ "A"eAA||\
c/d/|"A"ef/e/ d/c/B/A/ e<A "D"d>f|
                                  "A"ed/c/ cB/A/ "E7"cBB c/d/|\
  "A"ef/e/ cB/A/ "D"f/g/a/e/ d/c/B/A/|"E7"E<Ac>B "A"cAA c/d/|
  "A"e/f/e/d/ d/c/B/A/ a>A cB/A/|"E7"d>B "A"c>A "E"B<B,B,>C|\
  "A"A,>C E>F A>B c>B|"D"A>F "E7"A/F/E/C/ "A"EA,A,|]
